src/assets/outline/Task.svg

<svg width="24" height="24" viewBox="0 0 24 24"  xmlns="http://www.w3.org/2000/svg">
<path d="M21 20.25H11C10.59 20.25 10.25 19.91 10.25 19.5C10.25 19.09 10.59 18.75 11 18.75H21C21.41 18.75 21.75 19.09 21.75 19.5C21.75 19.91 21.41 20.25 21 20.25Z" />
<path d="M21 13.25H11C10.59 13.25 10.25 12.91 10.25 12.5C10.25 12.09 10.59 11.75 11 11.75H21C21.41 11.75 21.75 12.09 21.75 12.5C21.75 12.91 21.41 13.25 21 13.25Z" />
<path d="M21 6.25H11C10.59 6.25 10.25 5.91 10.25 5.5C10.25 5.09 10.59 4.75 11 4.75H21C21.41 4.75 21.75 5.09 21.75 5.5C21.75 5.91 21.41 6.25 21 6.25Z" />
<path d="M3.99994 7.25043C3.80994 7.25043 3.61994 7.18043 3.46994 7.03043L2.46994 6.03043C2.17994 5.74043 2.17994 5.26043 2.46994 4.97043C2.75994 4.68043 3.23994 4.68043 3.52994 4.97043L3.99994 5.44043L6.46994 2.97043C6.75994 2.68043 7.23994 2.68043 7.52994 2.97043C7.81994 3.26043 7.81994 3.74043 7.52994 4.03043L4.52994 7.03043C4.37994 7.18043 4.18994 7.25043 3.99994 7.25043Z" />
<path d="M3.99994 14.2504C3.80994 14.2504 3.61994 14.1804 3.46994 14.0304L2.46994 13.0304C2.17994 12.7404 2.17994 12.2604 2.46994 11.9704C2.75994 11.6804 3.23994 11.6804 3.52994 11.9704L3.99994 12.4404L6.46994 9.97043C6.75994 9.68043 7.23994 9.68043 7.52994 9.97043C7.81994 10.2604 7.81994 10.7404 7.52994 11.0304L4.52994 14.0304C4.37994 14.1804 4.18994 14.2504 3.99994 14.2504Z" />
<path d="M3.99994 21.2504C3.80994 21.2504 3.61994 21.1804 3.46994 21.0304L2.46994 20.0304C2.17994 19.7404 2.17994 19.2604 2.46994 18.9704C2.75994 18.6804 3.23994 18.6804 3.52994 18.9704L3.99994 19.4404L6.46994 16.9704C6.75994 16.6804 7.23994 16.6804 7.52994 16.9704C7.81994 17.2604 7.81994 17.7404 7.52994 18.0304L4.52994 21.0304C4.37994 21.1804 4.18994 21.2504 3.99994 21.2504Z" />
</svg>

<?xml version="1.0" encoding="UTF-8"?>
<svg width="24" height="24" viewBox="0 0 24 24" xmlns="http://www.w3.org/2000/svg">
 <path d="m21 20.25h-10c-0.41 0-0.75-0.34-0.75-0.75s0.34-0.75 0.75-0.75h10c0.41 0 0.75 0.34 0.75 0.75s-0.34 0.75-0.75 0.75z"/>
 <path d="m21 13.25h-10c-0.41 0-0.75-0.34-0.75-0.75s0.34-0.75 0.75-0.75h10c0.41 0 0.75 0.34 0.75 0.75s-0.34 0.75-0.75 0.75z"/>
 <path d="m21 6.25h-10c-0.41 0-0.75-0.34-0.75-0.75s0.34-0.75 0.75-0.75h10c0.41 0 0.75 0.34 0.75 0.75s-0.34 0.75-0.75 0.75z"/>
 <path d="m3.9999 7.2504c-0.19 0-0.38-0.07-0.53-0.22l-1-1c-0.29-0.29-0.29-0.77 0-1.06s0.77-0.29 1.06 0l0.47 0.47 2.47-2.47c0.29-0.29 0.77-0.29 1.06 0s0.29 0.77 0 1.06l-3 3c-0.15 0.15-0.34 0.22-0.53 0.22z"/>
 <path d="m3.9999 14.25c-0.19 0-0.38-0.07-0.53-0.22l-1-1c-0.29-0.29-0.29-0.77 0-1.06s0.77-0.29 1.06 0l0.47 0.47 2.47-2.47c0.29-0.29 0.77-0.29 1.06 0 0.29 0.28997 0.29 0.76997 0 1.06l-3 3c-0.15 0.15-0.34 0.22-0.53 0.22z"/>
 <path d="m3.9999 21.25c-0.19 0-0.38-0.07-0.53-0.22l-1-1c-0.29-0.29-0.29-0.77 0-1.06s0.77-0.29 1.06 0l0.47 0.47 2.47-2.47c0.29-0.29 0.77-0.29 1.06 0s0.29 0.77 0 1.06l-3 3c-0.15 0.15-0.34 0.22-0.53 0.22z"/>
</svg>
